X:5731
T:Gan ainm
R:Strathspey
S:(Unknown group)
H:
N:
D:
Z:Adrian Scahill
M:4/4
L:1/8
K:G
G>E|D<G GD ED G>B|d<B gB A2AG|D<G GD ED GD|1 (3EFG DB, G,2 G,B,:|2 (3EFG
 DB, G,3f||\
ga b<g d2de|ga b<g e2ef|g<b e<g d<g BG|AG A<B G2Gf|\
ga b<g d2de|ga b/2a/2g/2f/2 e2 ef|g<b e<g d<g BG|AG A<B G2 G2||
